!!!COM: Bach, Johann Sebastian
!!!OTL: 124. Auf, auf, mein Herz, und du mein ganzer Sinn
!!!ONM: No. 124
!!!OCL: Erk
!!!SCA: BWV 268
!!!YOE: Riemenschneider, Albert
!!!OPR: 371 Harmonized Chorales and 69 Chorale Melodies with Figured Bass
!!!OPT: Bach Chorale Harmonizations
**harm	**root	**kern	**kern	**kern	**kern
!	!	!bass	!tenor	!alto	!sprno
*Iorgan	*Iorgan	*Iorgan	*Iorgan	*Iorgan	*Iorgan
*k[f#c#g#d#]	*k[f#c#g#d#]	*k[f#c#g#d#]	*k[f#c#g#d#]	*k[f#c#g#d#]	*k[f#c#g#d#]
*E:	*E:	*E:	*E:	*E:	*E:
*met(c)	*met(c)	*met(c)	*met(c)	*met(c)	*met(c)
*M4/4	*M4/4	*M4/4	*M4/4	*M4/4	*M4/4
*MM60	*MM60	*MM60	*MM60	*MM60	*MM60
I	4GG	8E	4B	4e	4g#
.	.	8D#	.	.	.
=1	=1	=1	=1	=1	=1
I	8GG	4E	8B	8e	4g#
vib	8EE	.	8c#	8c#	.
Vb/vi	4BB	4BB#	4d#	8g#	4g#
.	.	.	.	8f#	.
vi;	4EE;	4C#;	4c#;	4e;	4g#;
iib	4AA	4AA	4c#	8f#	4cc#
.	.	.	.	8e	.
=2	=2	=2	=2	=2	=2
V7d	4.DD	4.AA	8F#	8d#	4b
.	.	.	8E	8c#	.
.	.	.	8F#	8d#	4b
viib/ii	8GG#	8GG#	8G#	8e#	.
ii	4AA	8FF#	8A	4f#	4a
.	.	8EE#	8G#	.	.
ii	4AA	4FF#	4F#	8c#	4a
.	.	.	.	8d#	.
=3	=3	=3	=3	=3	=3
I;	4GG;	4EE;	4B;	4e;	4g#;
I	4GG	4E	4G#	4B	4e
Vb	4DD	8D#	4F#	8B	4f#
.	.	8C#	.	8c#	.
V	4DD	4BB	8B	8d#	4f#
.	.	.	8A	8c#	.
=4	=4	=4	=4	=4	=4
I	4GG	8E	8G#	4B	4g#
.	.	8D#	8F#	.	.
IVb	4CC	4C#	4E	8e	4a
.	.	.	.	8c#	.
V	8DD	4BB	8F#	8d#	8b
V7	8DD	.	8D#	8f#	8a
vi	8EE	8C#	8E	[4e	4g#
Ic	8GG	8BB	8G#	.	.
=5	=5	=5	=5	=5	=5
ii7b	8AA	8AA	8c#	8e]	4f#
ii	8AA	8FF#	8A	16d#	.
.	.	.	.	16c#	.
V	4DD	4BB	8F#	4d#	4f#
.	.	.	16B	.	.
.	.	.	16A	.	.
I;	4GG;	4EE;	4G#;	4B;	4e;
V7d/V	4AA	4E	4A#	4c#	4f#
=6	=6	=6	=6	=6	=6
!!linebreak: 2
Vb	8DD	8D#	8B	8d#	4f#
V7c/V	8AA	8C#	8A#	8e	.
V	8DD	8BB	8B	8d#	4f#
Vb/V	8AA	8AA#	8c#	8c#	.
V;	4DD;	4BB;	4B;	4d#;	4f#;
Vb/vi	4BB	4BB#	4G#	[4d#	8g#
.	.	.	.	.	8f#
=7	=7	=7	=7	=7	=7
vi	4EE	8C#	4G#	4d#]	4e
.	.	8D#	.	.	.
vib	4EE	8E	4G#	[4c#	4e
.	.	8C#	.	.	.
Vb	8DD	8AA#	8F#	8c#]	4f#
viio/vi	8DD#	8BB#	8D#	8d#	.
vi	8EE	8C#	4E	8G#	4e
IV	8CC	8AA	.	[8c#	.
=8	=8	=8	=8	=8	=8
viio7b	4FF#	4FF#	4A	8c#]	2d#
.	.	.	.	8B#	.
V7b/V/vi	4FF#	4FF##	4A#	8c#	.
.	.	.	.	8A#	.
V/vi;	4BB;	4GG#;	4G#;	4B#;	4d#;
Vb/vi	4BB	4BB#	8G#	4G#	4d#
.	.	.	8F#	.	.
=9	=9	=9	=9	=9	=9
vi	8EE	8C#	8E	4G#	4e
V7c/IV	8GG	8BB	8D#	.	.
IV	8CC	8AA	8E	8c#	4e
Ib	8GG	8GG#	8G#	8B	.
ii	4AA	8FF#	[4A	8c#	4f#
.	.	8EE	.	16d#	.
.	.	.	.	16e	.
viio	8FF#	8DD#	8A]	8f#	4f#
V	8DD	8BBB	16B	8d#	.
.	.	.	16A	.	.
=10	=10	=10	=10	=10	=10
I	4GG	8EE	[4G#	8B	4g#
.	.	8E	.	16c#	.
.	.	.	.	16d#	.
IV7b	8CC	8C#	8G#]	8e	4a
viiob	8FF#	8F#	16F#	16d#	.
.	.	.	16E	16c#	.
Vb	8DD	8D#	8F#	8d#	8b
V7	8DD	8BB	8d#	4f#	8a
I	8GG	8E	8B	.	4g#
vi	8EE	8C#	8c#	8e	.
=11	=11	=11	=11	=11	=11
ii7b	4AA	8AA	8c#	4e	2f#
.	.	8FF#	8A	.	.
V	4DD	4BB	8F#	4d#	.
.	.	.	16B	.	.
.	.	.	16A	.	.
I;	4GG;	4EE;	4G#;	4B;	4e;
==	==	==	==	==	==
*-	*-	*-	*-	*-	*-
!!!CDT: 1685/3//-1750/7/28
!!!OCY: Deutschland
!!!AGN: chorale
!!!AST: Baroque
!!!AIN: vox
!!!YOY: 1941
!!!PPP: New York; London
!!!PPR: G. Schirmer
!!!ENC: David Huron
!!!EED: David Huron
!!!YEN: United States of America
!!!YER: 1992
!!!YEC: Copyright 1992 David Huron
!!!YEM: Rights to all derivative electronic formats reserved.
!!!YER: March 20, 1996
!!!AMT: simple quadruple
!!!EEV: 1.1
!!chor2scor: -l 2 -s 0.6 -o %b.pmx
